X: 1
T: Muddy Waters, The
M: 9/8
L: 1/8
R: slip jig
K: Gmaj
|:d2A AGF AGF|d2A AGF G3|d2A AGF AGF|GAB cAF G3:|
|A2d d2e f2d|ABA AGF G3|A2d d2e f2g|a2f gfe d3|
A2d d2e f2d|ABA AGF Gfg|a2f gfe d2A|GAB cAF G3|
